packages/core/src/svgs/tokens/branded/LITT.svg

<svg width="24" height="24" viewBox="0 0 24 24" fill="none" xmlns="http://www.w3.org/2000/svg">
<path d="M10.6002 6.61865H13.4458C13.9073 6.56738 14.7686 6.08542 14.5584 4.53704C14.5533 4.49602 14.4917 4.47551 14.4558 4.5114C14.1353 4.84567 13.7473 5.10784 13.3176 5.28046C13.3689 5.20356 13.4714 4.94208 13.4714 4.49602C13.4714 4.05509 13.0766 3.52186 12.8716 3.31165C12.7291 3.14211 12.6285 2.94153 12.5778 2.72604C12.527 2.51054 12.5275 2.28615 12.5793 2.07089C12.5835 2.06063 12.5843 2.04926 12.5816 2.03851C12.5788 2.02774 12.5726 2.01817 12.5639 2.01123C12.5553 2.00429 12.5446 2.00036 12.5335 2.00002C12.5224 1.99969 12.5115 2.00297 12.5024 2.00937C11.9602 2.29572 11.5031 2.71999 11.1772 3.2394C10.8513 3.75879 10.6683 4.35495 10.6464 4.96772C10.6054 4.93695 10.2772 4.60882 10.1798 4.17301C10.1696 4.12174 10.0978 4.10636 10.0722 4.1525C9.62607 4.8703 9.20051 6.19309 10.6002 6.61865ZM9.75934 7.41335V8.15678C9.75934 8.20806 9.82597 8.31059 10.067 8.37725C10.308 8.43877 10.4515 8.75666 10.4618 8.90534V12.1354C10.4618 12.1713 10.4311 12.2328 10.3798 12.2944C9.37028 12.61 8.48694 13.2376 7.85677 14.0871C7.2266 14.9365 6.8821 15.9639 6.8728 17.0216C6.8728 19.7697 9.16975 22 11.9999 22C14.8301 22 17.127 19.7697 17.127 17.0216C17.1181 15.9646 16.7744 14.9377 16.1451 14.0883C15.516 13.2389 14.6338 12.6109 13.6253 12.2944C13.574 12.2328 13.5381 12.1713 13.5381 12.1303V8.90534C13.5484 8.75666 13.7021 8.4439 13.938 8.37725C14.1789 8.31059 14.2456 8.20293 14.2456 8.15678V7.41335C14.2456 7.25954 14.1226 7.13136 13.9687 7.13136H10.0363C9.88244 7.13136 9.75934 7.2544 9.75934 7.41335ZM7.7598 16.4115C7.8686 15.8863 8.16016 15.4166 8.58262 15.0862C9.00508 14.7558 9.53104 14.5859 10.067 14.6067C11.1489 14.6067 11.5744 15.1194 11.9999 15.6475C12.4409 16.191 12.892 16.7396 14.0661 16.7396C14.4559 16.7338 14.8401 16.6464 15.1941 16.4833C15.5889 16.2525 16.1426 16.3294 16.1836 16.9088V17.0216C16.1836 19.2929 14.2866 21.1335 11.9538 21.1335C11.3555 21.1408 10.7627 21.0194 10.2155 20.7776C9.6683 20.5357 9.17948 20.179 8.78221 19.7316C8.38494 19.2842 8.0885 18.7568 7.91297 18.1848C7.73746 17.6128 7.68696 17.0098 7.76492 16.4166L7.7598 16.4115ZM9.94908 17.8983C10.221 17.8983 10.4818 17.7902 10.6742 17.598C10.8664 17.4056 10.9745 17.1448 10.9745 16.8729C10.9745 16.601 10.8664 16.3401 10.6742 16.1478C10.4818 15.9556 10.221 15.8475 9.94908 15.8475C9.67715 15.8475 9.41629 15.9556 9.22398 16.1478C9.03169 16.3401 8.92364 16.601 8.92364 16.8729C8.92364 17.1448 9.03169 17.4056 9.22398 17.598C9.41629 17.7902 9.67715 17.8983 9.94908 17.8983ZM13.0253 18.411C13.1613 18.411 13.2917 18.3571 13.3879 18.2609C13.484 18.1647 13.5381 18.0343 13.5381 17.8983C13.5381 17.7624 13.484 17.632 13.3879 17.5358C13.2917 17.4396 13.1613 17.3856 13.0253 17.3856C12.8894 17.3856 12.759 17.4396 12.6628 17.5358C12.5666 17.632 12.5127 17.7624 12.5127 17.8983C12.5127 18.0343 12.5666 18.1647 12.6628 18.2609C12.759 18.3571 12.8894 18.411 13.0253 18.411Z" fill="url(#paint0_linear_364_6720)"/>
<defs>
<linearGradient id="paint0_linear_364_6720" x1="7.63271" y1="4.31428" x2="20.5897" y2="13.0149" gradientUnits="userSpaceOnUse">
<stop stop-color="#33AAC2"/>
<stop offset="0.51" stop-color="#47B6CA"/>
<stop offset="1" stop-color="#92E5EB"/>
</linearGradient>
</defs>
</svg>

<svg xmlns="http://www.w3.org/2000/svg" width="24" height="24" fill="none" viewBox="0 0 24 24">
    <path fill="url(#LITT__a)" d="M10.6 6.619h2.846c.461-.052 1.323-.534 1.112-2.082-.005-.041-.066-.061-.102-.026a3.3 3.3 0 0 1-1.138.77c.05-.077.153-.339.153-.785 0-.44-.394-.974-.6-1.184a1.41 1.41 0 0 1-.292-1.241.051.051 0 0 0-.077-.062 3.49 3.49 0 0 0-1.856 2.959 1.67 1.67 0 0 1-.466-.795c-.01-.051-.082-.067-.108-.02-.446.717-.871 2.04.528 2.466m-.84.794v.744c0 .051.066.154.307.22.241.062.384.38.395.528v3.23c0 .036-.03.098-.082.16a5 5 0 0 0-3.507 4.727C6.873 19.77 9.17 22 12 22s5.127-2.23 5.127-4.978a5 5 0 0 0-3.502-4.728c-.051-.061-.087-.123-.087-.164V8.905c.01-.148.164-.461.4-.528.24-.066.308-.174.308-.22v-.744a.28.28 0 0 0-.277-.282h-3.933a.277.277 0 0 0-.277.282m-2 8.999a2.266 2.266 0 0 1 2.307-1.805c1.082 0 1.507.512 1.933 1.04.44.544.892 1.093 2.066 1.093a2.8 2.8 0 0 0 1.128-.257c.395-.23.949-.154.99.426v.113c0 2.27-1.897 4.112-4.23 4.112a4.175 4.175 0 0 1-4.19-4.717zm2.19 1.486a1.026 1.026 0 1 0-.001-2.052 1.026 1.026 0 0 0 0 2.052m3.075.513a.513.513 0 1 0 0-1.025.513.513 0 0 0 0 1.025"/>
    <defs>
        <linearGradient id="LITT__a" x1="7.633" x2="20.59" y1="4.314" y2="13.015" gradientUnits="userSpaceOnUse">
            <stop stop-color="#33AAC2"/>
            <stop offset=".51" stop-color="#47B6CA"/>
            <stop offset="1" stop-color="#92E5EB"/>
        </linearGradient>
    </defs>
</svg>
